X:1
T:Now let us raise our cheerful strains
T:Now let us raise our cheerful strains - Lewes (Thomas Clark)
C:Thomas Clark
Z:Text: Anne Steele
%%score [ 1 2 3 4 ]
L:1/8
M:4/4
K:F
V:1 treble nm="Air" snm="S."
V:2 treble nm="[Alto]" snm="A."
V:3 treble-8 transpose=-12 nm="Tenor" snm="T."
V:4 bass nm="[Bass]" snm="B."
V:1
 F2 Ac f3 c | (d/e/f/d/ c)B A2 z c | d2 B2 c2 F2 | B3 A (A2 G2) |: c2 cc d2 f2 | f2 e2 f2 z f | %6
w: Je- sus, who once up-|on _ _ _ _ the tree In|a- go- ni- zing|pains ex- pir’d; _|Who died for re- bels,|yes, ’tis he! How|
w: Now let us raise our|cheer- * * * * ful strains, And|join the bliss- ful|choir a- bove: _|There our ex- alt- ed|Sa- viour reigns, And|
w: While se- raphs tune th’im-|mor- * * * * tal song, Oh,|may we feel the|sa- cred flame; _|And ev- ’ry heart, and|ev- ’ry tongue A-|
 (edc)B A3 d | (cBA)G FAGB | (AcBd c_e)(dB) | A2 G2 F4 :| %10
w: bright, _ _ how love- ly,|how _ _ ad- mir’d, how bright, how|love- * * * * * ly, _|how ad- mir’d!|
w: there _ _ they sing his|wond- * * rous love, and there they|sing _ _ _ _ _ his _|wond- rous love.|
w: dore _ _ the Sa- viour’s|glo- * * rious name, a- dore the|Sa- * * * * * viour’s _|glo- rious name!|
V:2
 C2 FG F3 F | F2 E2 F2 z F | F2 F2 F2 F2 | (DE) F2 (F2 E2) |: F2 FF F2 F2 | D2 (GE) C2 z2 | z8 | %7
w: Je- sus, who once up-|on the tree In|a- go- ni- zing|pains _ ex- pir’d; _|Who died for re- bels,|yes, ’tis _ he!||
w: Now let us raise our|cheer- ful strains, And|join the bliss- ful|choir _ a- bove: _|There our ex- alt- ed|Sa- viour _ reigns,||
w: While se- raphs tune th’im-|mor- tal song, Oh,|may we feel the|sa- * cred flame; _|And ev- ’ry heart, and|ev- ’ry _ tongue||
 z8 | z FFF (FC)(DG) | F2 E2 F4 :| %10
w: |How bright, how love- * ly, _|how ad- mir’d!|
w: |And there they sing _ his _|wond- rous love.|
w: |A- dore the Sa- * viour’s _|glo- rious name!|
V:3
 c2 cc A3 A | G2 c2 c2 z A | B2 B2 A2 c2 | G2 c2 c4 |: c2 AA d2 c2 | B3 B A2 z2 | z4 z2 z f | %7
w: Je- sus, who once up-|on the tree In|a- go- ni- zing|pains ex- pir’d;|Who died for re- bels,|yes, ’tis he!|How|
w: Now let us raise our|cheer- ful strains, And|join the bliss- ful|choir a- bove:|There our ex- alt- ed|Sa- viour reigns,|And|
w: While se- raphs tune th’im-|mor- tal song, Oh,|may we feel the|sa- cred flame;|And ev- ’ry heart, and|ev- ’ry tongue|A-|
 (edc)B (A>B c)c | (cA) B2 ((AF)(fd)) | c3 B A4 :| %10
w: bright, _ _ how love- * * ly,|how _ ad- mir’d, im- mea- su-|how ad- mir’d!|
w: there _ _ they sing _ _ his|wond- * rous love, _ his _|wond- rous love.|
w: dore _ _ the Sa- * * viour’s|glo- * rious name, _ the _|glo- rious name!|
V:4
 F,2 F,"^6"E, D,3 F, |"^65" B,,2"^8""^7" C,2 F,2 z F, | B,2"^7" G,2"^6" A,2"^6" A,2 | %3
w: Je- sus, who once up-|on the tree In|a- go- ni- zing|
w: Now let us raise our|cheer- ful strains, And|join the bliss- ful|
w: While se- raphs tune th’im-|mor- tal song, Oh,|may we feel the|
"^5""^6" G,2"^4""^3" F,2"^64""^53" C,4 |:"^6" A,2 F,F, B,2"^6" A,2 |"^7" G,3"^6""^-" G, F,2 z2 | %6
w: pains ex- pir’d;|Who died for re- bels,|yes, ’tis he!|
w: choir a- bove:|There our ex- alt- ed|Sa- viour reigns,|
w: sa- cred flame;|And ev- ’ry heart, and|ev- ’ry tongue|
 z8 | %7
w: |
w: |
w: |
"^The order of parts in the source is Tenor - [Alto] - Air - [Bass], with the Alto and Tenor parts printed in the trebleclef an octave above sounding pitch. Only the first verse of the text is given in the source: subsequent verseshave been added editorially here, with suggestions for accommodating the repetition of part of line 4 in the tenorpart. The soprano A and alto F on beat 3 of bar 4, shown here as crotchets, are printed in the source as smallcrotchet grace notes, slurred to the next note which is given in both parts as a full-sized minim." z4 z2"^Were universal nature ours,And art with all her boasted store;Nature and art, with all their pow’rs,Would still confess the off’rer poor!Yet though for bounty so divineWe ne’er can equal honours raise,Jesus, may all our hearts be thine,And all our tongues proclaim thy praise!" z"^7" C, | %8
w: How|
w: And|
w: A-|
 F,2"^7" G,2"^6" A,2"^5""^6" B,2 |"^64" C2"^5""^7" C,2 F,4 :| %10
w: bright, how love- ly,|how ad- mir’d!|
w: there they sing his|wond- rous love.|
w: dore the Sa- viour’s|glo- rious name!|

